X:1
T:Con guancia intenerita
T:Claudio Saracini
T:Source : Le terze Musiche per cantar e sonar---Venetia---A.Vincenti---1620. Editor : André Vierendeels ( 09/12/15).
T:Notes  : Original clefs : C1, F4 Original note values have been halved
T:Con guancia intenerita
T:Aria
C:Claudio Saracini
%%score 1 2
L:1/8
Q:1/4=90
M:3/4
K:F
V:1 treble nm="Soprano" snm="S"
V:2 bass nm="BC" snm="BC"
V:1
 z4 D2 | D4 E2 | F4 E2 | D2 D2 A2 | A4 G2 | F4 E2 | D/C/D/E/ F/E/F/G/ E2 | EE/E/ F2 A2 | G4 F2 :: %9
w: Con|guan- cia'in-|te- ne-|ri- ta, con|oc- chi|ciu- le-|sor, _ _ _ _ _ _ _ chi|Tir- si per que- sti|bo- schi,|
w: Ri-|so- na-|va- no'i|mon- ti, mor-|mo- ra-|va- no'i|ven- * * * * * * * ti,|gli'a- do- lo- ra- ti'ac-|cen- ti,|
w: Da|pie- ta|ful- mi-|na- ta, co'l|bel vi-|so di|ro- * * * * * * * sa,|pa- rio- fil- li vez-|zo- sa,|
w: Tac-|cia ch'io|tac- cia|ta- ci, tac-|ce- ro|la mia|no- * * * * * * * ia,|can- ta- ro la mia|gio- ia,|
 c3 B A2 | G2 F2 E2 | E2 F2 G2 | A4 A2 | z2 c3 A | G4 F2 | z2 A3 F | E4 D2 :| %17
w: pian- ce'i per-|du- ti suoi|gior- ni tran-|quil- li,|ohi- me,|Fil- li,|ohi me|Fil- li.|
w: e di- cea|so- spi- ro-|so'un mu- to|sas- so,|ohi- me|las- so,|ohi- me|las- so.|
w: ec- co- ti|del pia- cer|la fon- te'a-|prir- si,|ohi- me|Tir- si,|ohi- me|Tir- si.|
w: co- si dol-|ce can- to|mu- si- co|la- bro,|fam- man|il cor,|man- na'il|la- bro.|
V:2
 z4 D,2 | D,4 ^C,2 | D,4 ^C,2 | D,2 D,2 F,2 | F,4 C,2 | D,4 C,2 | B,,4 A,,2 | A,,2 D,2 F,2 | %8
 C,4 F,,2 :: F,,3 G,, A,,2 | C,2 D,2 A,,2 | A,,2 D,2 C,2 | F,,4 F,,2 | F,4 F,2 | C,4 F,,2 | %15
 F,4 F,,2 | A,,4 D,2 :| %17

